X: 21603
Q: "Allegetto."
M: 2/4
L: 1/8
K: G
d |\
gdcB | cccd | eAAA | A2dd |\
g2dB | cedc | BGGG | G3 |] \
ggdB | cedc | (BG)GG | G3 |]


